dist/img/events/next.svg

<svg width="49" height="48" viewBox="0 0 49 48" fill="none" xmlns="http://www.w3.org/2000/svg">
<g id="Group 120867">
<circle id="Ellipse 1837" cx="24.5" cy="24" r="24" fill="#FFDE40"/>
<path id="Vector 252" d="M13.25 22.5C12.4216 22.5 11.75 23.1716 11.75 24C11.75 24.8284 12.4216 25.5 13.25 25.5L13.25 22.5ZM36.8107 25.0607C37.3964 24.4749 37.3964 23.5251 36.8107 22.9393L27.2647 13.3934C26.6789 12.8076 25.7292 12.8076 25.1434 13.3934C24.5576 13.9792 24.5576 14.9289 25.1434 15.5147L33.6287 24L25.1434 32.4853C24.5576 33.0711 24.5576 34.0208 25.1434 34.6066C25.7292 35.1924 26.6789 35.1924 27.2647 34.6066L36.8107 25.0607ZM13.25 25.5L35.75 25.5L35.75 22.5L13.25 22.5L13.25 25.5Z" fill="#21201F"/>
</g>
</svg>

<svg width="49" height="48" fill="none" xmlns="http://www.w3.org/2000/svg"><circle cx="24.5" cy="24" r="24" fill="#FFDE40"/><path d="M13.25 22.5a1.5 1.5 0 000 3v-3zm23.56 2.56a1.5 1.5 0 000-2.12l-9.545-9.547a1.5 1.5 0 10-2.122 2.122L33.63 24l-8.486 8.485a1.5 1.5 0 102.122 2.122l9.546-9.546zm-23.56.44h22.5v-3h-22.5v3z" fill="#21201F"/></svg>
